X:1
T:Title
%%score { ( 1 3 5 ) | ( 2 4 ) }
L:1/8
M:4/4
K:A
V:1 treble nm="Grand Piano"
V:3 treble 
V:5 treble 
V:2 bass 
V:4 bass 
V:1
 z4 z2[Q:1/4=100] [Ec][DB] | [CA]2 [CA]2 [DF]2 [DA]2 | [A,CE]2 [CEA]4 [A,CE][A,CE] | %3
 [CEA]3 [CEA] [CEA]2 E-[EA] |[M:3/4] B6 |[M:1/4] cd |[M:4/4] e2 e2 [Ac]2 AG | %7
[M:5/4] F2 [Fd]6 [FA]F |[M:4/4] E3 E E2 FG |[M:3/4] [CA]6 |[M:1/4] [CE]2 | %11
[M:4/4] [CE]6[K:bass][K:treble] z2 | [CEA]2 [CEA]4 [CA][CA] | [Ec]4- [Ec]>c BA | e6 c>d | %15
 e>e ec [CEA]2 [EB][Ec] |[M:9/8] [Fd]>[Fd][Fd]- [Fd]/[Fd]/ [DF]2- [DF][FA]F |[M:4/4] EEEE EEFG | %18
[M:3/4] [CA]6 |] %19
V:2
 z4 z2 [A,,A,][A,,A,] | [A,,A,]2 [A,,A,]2 [D,A,]2 [D,F,]2 | A,,2 A,,4 A,,A,, | z4 z2 E,2 | %4
[M:3/4] [E,G,E]6 |[M:1/4][K:treble] [A,E][A,B,E] | %6
[M:4/4] [A,CA]2 [A,CA]2[K:bass] [A,,A,]2 [C,A,]2 |[M:5/4] [D,A,D]2 [D,A,]6 [D,A,][D,A,D] | %8
[M:4/4] [E,A,C]3 [E,A,C] [E,A,C]2 [E,B,D]2 |[M:3/4] [A,,A,]6 |[M:1/4] [A,,A,]2 | %11
[M:4/4] [A,,A,]A,,A,,A,, .A,,>C A,,A,, | A,,2 A,,4 A,A, | A,A,A,A, .A,>E [G,B,E][F,B,^D] | %14
 [E,G,E]6 [E,A,E]>[E,B,E] | [A,CA]>[A,CA] [A,CA][A,A][K:bass] A,,2 [E,G,][E,A,] | %16
[M:9/8] [D,F,]>[D,A,][D,A,]- [D,A,]/[D,A,]/ [D,A,]2- [D,A,][D,A,][D,A,D] | %17
[M:4/4] [E,A,C][E,A,C][E,A,C][E,A,C] [E,A,C][E,A,C][E,B,D][E,B,D] |[M:3/4] [A,,A,]6 |] %19
V:3
 x8 | x8 | x8 | z4 z2 .[B,G]2 |[M:3/4] x6 |[M:1/4] x2 |[M:4/4] z4 z2 E2 |[M:5/4] x10 |[M:4/4] x8 | %9
[M:3/4] x6 |[M:1/4] x2 |[M:4/4] z[K:bass] A,A,A, .A,>[K:treble]E [A,C][A,CE] | x8 | x8 | x8 | x8 | %16
[M:9/8] x9 |[M:4/4] x8 |[M:3/4] x6 |] %19
V:4
 x8 | x8 | x8 | A,,3 A,, A,,2 z A, |[M:3/4] x6 |[M:1/4][K:treble] x2 |[M:4/4] x4[K:bass] x4 | %7
[M:5/4] x10 |[M:4/4] x8 |[M:3/4] x6 |[M:1/4] x2 |[M:4/4] z4 z A,, z2 | x8 | z4 z A, z2 | x8 | %15
 x4[K:bass] x4 |[M:9/8] x9 |[M:4/4] x8 |[M:3/4] x6 |] %19
V:5
 x8 | x8 | x8 | x8 |[M:3/4] x6 |[M:1/4] x2 |[M:4/4] x8 |[M:5/4] x10 |[M:4/4] x8 |[M:3/4] x6 | %10
[M:1/4] x2 |[M:4/4] z4[K:bass] z A,[K:treble] z2 | x8 | x8 | x8 | x8 |[M:9/8] x9 |[M:4/4] x8 | %18
[M:3/4] x6 |] %19

